X:1
T:Title
%%score 1 2
L:1/8
Q:1/4=110
M:4/4
K:Bb
V:1 treble nm="Grand Piano, Soprano"
V:2 bass nm="Choir Pad, Lompoc, 85.85 D"
V:1
 B2 F2 c2 F2 | [Fd]3 [Ec] [DB]2 [DF]2 | [Ge]2 [Ge]2 [GB]2 [^Fc]2 | [Fd]6 z2 | %4
w: By~Joseph~Lincoln~Hall,~1900 * * *||||
 [DB]2 [DF]2 [Ec]2 [EF]2 | [^Fd]3 [Fd] [GB]2 G2 | [Ge]2 [EG]2 [EA]2 [EF]2 | [DB]6 z2 | %8
w: ||||
 [DFB]2 [DFB]2 [DFB]2 [DFB]2 | [DFB]2 [EGB]2 [DFB]2 [DFB]2 | [DFB]2 [DFB]2 [DFB]2 [DFB]2 | %11
w: |||
 [EFA]2 [EFA]2 [EFA]2 [EFA]2 | [DB]2 [DB]2 [^Fd]3 [Fc] | [GB]2 [GB]2 [Ge]2 [Gc]2 | %14
w: |||
 [FBdf]3 [FAce] [FBd]2 [EFAc]2 | [DFB]8 |] %16
w: ||
V:2
 B,2 F,2 C2 F,2 | [B,,B,]3 [B,,B,] [B,,B,]2 [B,,B,]2 | [E,B,]2 [E,B,]2 [E,B,]2 [E,B,]2 | %3
 [B,,B,]6 z2 | [B,,B,]2 [B,,B,]2 [F,A,]2 [F,A,]2 | [D,A,]3 [D,D] [G,D]2 [G,B,]2 | %6
 [C,C]2 [C,C]2 [F,C]2 [F,A,]2 | [B,,B,]6 z2 | F,2 B,2 D3 C | B,2 G,2 F,2 D,2 | F,2 B,2 D2 B,2 | %11
 C6 z2 | [B,,B,]2 [B,,B,]2 [D,A,]3 [D,D] | [G,D]2 [G,D]2 [C,C]2 [E,C]2 | %14
 [F,D]3 [F,C] [F,B,]2 [F,A,]2 | [B,,B,]8 |] %16

